src/lib/packages/icons/src/assets/filled/chat-dots-notification.svg

<svg width="24" height="24" viewBox="0 0 24 24" fill="none" xmlns="http://www.w3.org/2000/svg">
<path d="M19.9309 8.36903C19.5829 8.47203 19.2129 8.51203 18.8269 8.49403C17.0639 8.41603 15.5819 6.93302 15.5039 5.16902C15.4869 4.78402 15.5259 4.41403 15.6299 4.06703C15.6739 3.91803 15.613 3.75804 15.47 3.69704C13.953 3.05504 12.217 2.82204 10.399 3.13704C7.18897 3.69204 4.47713 6.03503 3.46513 9.13203C2.69713 11.482 2.93305 13.821 3.83305 15.756C4.04305 16.196 4.04311 16.706 3.89311 17.176L3.05302 19.675C2.78902 20.46 3.53804 21.209 4.32304 20.945L6.82304 20.105C7.29304 19.955 7.80296 19.955 8.24296 20.165C10.177 21.064 12.5131 21.301 14.8621 20.535C17.9601 19.524 20.3041 16.813 20.8611 13.602C21.1761 11.784 20.9431 10.046 20.3011 8.52803C20.2401 8.38603 20.0799 8.32503 19.9309 8.36903ZM8.02006 13C7.46806 13 7.01493 12.552 7.01493 12C7.01493 11.448 7.45805 11 8.01005 11H8.02006C8.57306 11 9.02006 11.448 9.02006 12C9.02006 12.552 8.57206 13 8.02006 13ZM12.0201 13C11.4681 13 11.0149 12.552 11.0149 12C11.0149 11.448 11.4581 11 12.0101 11H12.0201C12.5731 11 13.0201 11.448 13.0201 12C13.0201 12.552 12.5721 13 12.0201 13ZM16.0201 13C15.4681 13 15.0149 12.552 15.0149 12C15.0149 11.448 15.4581 11 16.0101 11H16.0201C16.5731 11 17.0201 11.448 17.0201 12C17.0201 12.552 16.5721 13 16.0201 13ZM17.001 5.00001C17.001 3.89501 17.897 3.00001 19.001 3.00001C20.105 3.00001 21.001 3.89501 21.001 5.00001C21.001 6.10501 20.105 7.00001 19.001 7.00001C17.897 7.00001 17.001 6.10501 17.001 5.00001Z" fill="currentColor"/>
</svg>

<svg xmlns="http://www.w3.org/2000/svg" width="24" height="24" fill="none"><path fill="currentColor" d="M19.93 8.369a3.327 3.327 0 0 1-1.103.125c-1.763-.078-3.245-1.561-3.323-3.325a3.315 3.315 0 0 1 .126-1.102c.044-.149-.017-.309-.16-.37-1.517-.642-3.253-.875-5.071-.56-3.21.555-5.922 2.898-6.934 5.995-.768 2.35-.532 4.689.368 6.624.21.44.21.95.06 1.42l-.84 2.499a1.003 1.003 0 0 0 1.27 1.27l2.5-.84c.47-.15.98-.15 1.42.06 1.934.899 4.27 1.136 6.62.37 3.097-1.011 5.441-3.722 5.998-6.933a9.004 9.004 0 0 0-.56-5.074c-.06-.142-.221-.203-.37-.159ZM8.02 13a1.005 1.005 0 0 1-1.005-1c0-.552.443-1 .995-1h.01a1 1 0 1 1 0 2Zm4 0a1.005 1.005 0 0 1-1.005-1c0-.552.443-1 .995-1h.01a1 1 0 1 1 0 2Zm4 0a1.005 1.005 0 0 1-1.005-1c0-.552.443-1 .995-1h.01a1 1 0 1 1 0 2Zm.981-8a2 2 0 1 1 4 0 2 2 0 0 1-4 0Z"/></svg>
